packages/core/src/svgs/tokens/mono/BLT.svg

<svg width="24" height="24" viewBox="0 0 24 24" fill="none" xmlns="http://www.w3.org/2000/svg">
<path d="M11.5947 2.11533C10.5712 2.94356 9.00182 4.71118 9.00182 6.79057C9.00182 8.38878 10.3077 9.68471 11.9195 9.68471C13.5312 9.68471 14.837 8.38878 14.837 6.79057C14.837 4.71118 13.2682 2.94356 12.2441 2.11533C12.1524 2.04072 12.0376 2 11.9195 2C11.8011 2 11.6865 2.04072 11.5947 2.11533ZM11.9195 14.3152C10.3077 14.3152 9.00182 15.611 9.00182 17.2092C9.00182 19.2886 10.5707 21.0563 11.5947 21.8844C11.6865 21.9591 11.8011 21.9999 11.9195 21.9999C12.0376 21.9999 12.1524 21.9591 12.2441 21.8844C13.2682 21.0568 14.837 19.2886 14.837 17.2092C14.837 15.611 13.5312 14.3152 11.9195 14.3152ZM17.1705 14.894C15.5594 14.894 14.2529 13.5981 14.2529 11.9999C14.2529 10.4017 15.5594 9.10583 17.1705 9.10583C19.267 9.10583 21.0492 10.6617 21.884 11.6782C21.959 11.7686 22 11.8824 22 11.9999C22 12.1174 21.959 12.2312 21.884 12.3216C21.0487 13.3381 19.2663 14.894 17.1705 14.894ZM2.11603 11.6782C2.95131 10.6617 4.73364 9.10583 6.82949 9.10583C8.44065 9.10583 9.74716 10.4017 9.74716 11.9999C9.74716 13.5981 8.44065 14.894 6.82949 14.894C4.73305 14.894 2.95072 13.3381 2.11603 12.3216C2.04104 12.2312 2 12.1174 2 11.9999C2 11.8824 2.04104 11.7686 2.11603 11.6782Z" fill="white"/>
</svg>

<svg xmlns="http://www.w3.org/2000/svg" width="24" height="24" fill="none" viewBox="0 0 24 24">
    <path fill="#fff" d="M11.595 2.115c-1.024.829-2.593 2.596-2.593 4.676 0 1.598 1.306 2.894 2.917 2.894 1.612 0 2.918-1.296 2.918-2.894 0-2.08-1.569-3.847-2.593-4.676a.515.515 0 0 0-.65 0m.324 12.2c-1.611 0-2.917 1.296-2.917 2.894 0 2.08 1.569 3.847 2.593 4.675a.514.514 0 0 0 .65 0c1.023-.827 2.592-2.595 2.592-4.675 0-1.598-1.306-2.894-2.918-2.894m5.252.579c-1.612 0-2.918-1.296-2.918-2.894s1.306-2.894 2.918-2.894c2.096 0 3.878 1.556 4.713 2.572a.504.504 0 0 1 0 .644c-.835 1.016-2.618 2.572-4.713 2.572M2.116 11.678c.835-1.016 2.618-2.572 4.713-2.572 1.612 0 2.918 1.296 2.918 2.894s-1.306 2.894-2.918 2.894c-2.096 0-3.878-1.556-4.713-2.572a.504.504 0 0 1 0-.644"/>
</svg>
